X:1
T:Jungrun gick åt lunden, sköna
T:Aug. Söderman (1832-1876)
T:Jungfrun gick åt lunden, sköna
T:©PA Aglert Edition may be freely distributed, duplicated, performed and recorded
T:©PA Aglert Edition may be freely distributed, duplicated, performed and recorded
T:©PA Aglert Edition may be freely distributed, duplicated, performed and recorded
T:©PA Aglert Edition may be freely distributed, duplicated, performed and recorded
T:©PA Aglert Edition may be freely distributed, duplicated, performed and recorded
C:Aug. Söderman (1832-1876)
Z:©PA Aglert
Z:Edition may be freely distributed, duplicated, performed and recorded
%%score [ 1 2 3 4 ]
L:1/8
Q:1/4=92
M:2/4
K:Eb
V:1 treble nm="S"
V:2 treble nm="A"
V:3 treble-8 nm="T"
V:4 bass nm="B"
V:1
"^Allegretto"!p! B!<(!B!<)!!>(! eB!>)! | cB/A/ BG |!mf!!<(! !>!e2 !>!f2!<)! | g!>(!.e .e!>)! z | %4
w: Jung- frun gick åt|lun- den, den skö- na,|Su- ril,|su- ril, lei!|
w: ||||
!p! B!<(!B/B/!<)!!>(! eB/B/!>)! | cB/A/ BG |!mf! !>!e2!<(! !>!f2!<)! | d!>(!.B .B!>)! z | %8
w: Sat- te hon sig u- ti|grä- set det grö- na,|Su- ril,|su- rel, lei!|
w: ||||
 cc ec/c/ | B!<(!B/G/!<)! c2 | AA cA/A/ | G!<(!G/E/!<)! A2 |!p! G2 F2 | E2 z2 || %14
w: Sat- te snö- vi- tan|hand un- der kind.|Säg se'n kä- res- tan|un- der grön lind.|Su- ril,|lei!|
w: ||||||
!mf!"^marcato" FD/F/ BB/B/ |!<(! [Bc][Bc]/!<)![Bd]/!f! [Be]2 | [Bd]2!>(! [FB]>[F=A]!>)! | %17
w: "Räck mig hit han- den min|hjär- te- lig kär",|Su- ril, å|
w: |||
 [Fc].[EF] .[EF] z | FD/!<(!F/ B!<)!B/B/ | [Bc][Bc]/[Bd]/!f! [Be]2 | [Bd]2!>(! [=Ac]>!>)!B | %21
w: su- ril, lei!|"Dig vill jag gi- va min|ä- ra och tro."|Su- ril, å|
w: ||||
 d.B .B z | z3/2!mf! F/!<(! F2-!<)! | F4-!f! | F2-!>(! F>!>)!F | F.F .F z | z3/2 F/!<(! F2-!<)! | %27
w: su- ril, lei!||||||
w: |Tra- la||* * å|su- ril, lei!|Tra- la|
 F4- | F2-!>(! F>F!>)! | F.F .F z ||!p! B!<(!B!<)! e!>(!B!>)! | cB/A/ BG | %32
w: |||Jung- frun gick åt|lun- den, den skö- na,|
w: |* * å|sur- il, lei!|||
!mf!!<(! !>!e2 !>!f2!<)! |!>(! g.e!>)! .e z |!p! B!<(!B/B/!<)! e!>(!B/B/!>)! | cB/A/ BG!mf! | %36
w: Su- ril,|su- ril, lei!|Sat- te hon sig u- ti|grä- set det grö- na,|
w: ||||
!<(! !>!e2 !>!f2!<)! |!>(! d.B!>)! .B z |!f! !>!c!>!c !>!ec/c/ | B!<(!B/G/!<)! c z/ c/ | %40
w: Su- ril,|su- ril, lei!|Hå, hå, hå vad den|värl- den är falsk, Gud|
w: ||||
 AA/A/ cA/A/ | G!<(!G/"^rall."E/!<)! A2 |!p!"^Lento" G2 F2 | E2- E z |] %44
w: nå- de den flic- ka som|tror på en skalk.|Su- ril,|lei! *|
w: ||||
V:2
!p! G!<(!G!<)!!>(! GG!>)! | AG/F/ GE!mf! |!<(! !>!B2 !>!B2!<)! | B!>(!.B .B!>)! z | %4
w: Jung- frun gick åt|lun- den, den skö- na,|Su- ril,|su- ril, lei!|
w: ||||
!p! G!<(!G/G/!<)!!>(! GG/!>)!G/ | AG/F/ GE |!mf! !>!B2!<(! !>!c2!<)! | B!>(!.F .F!>)! z | %8
w: Sat- te hon sig u- ti|grä- set det grö- na,|Su- ril,|su- rel, lei!|
w: ||||
 AA cA/A/ | G!<(!G/E/!<)! A2 | FF AF/F/ | E!<(!E/C/!<)! F2 |!p! D2 D2 | E2 z2 || %14
w: Sat- te snö- vi- tan|hand un- der kind.|Säg se'n kä- res- tan|un- der grön lind.|Su- ril,|lei!|
w: ||||||
!mf!"^marcato" DB,/D/ DD/D/ |!<(! EE/!<)!F/!f! G2 | F2!>(! D>C!>)! | E.=A, .A, z | %18
w: "Räck mig hit han- den min|hjär- te- lig kär",|Su- ril, å|su- ril, lei!|
w: ||||
 DB,/!<(!D/ D!<)!D/D/ | EE/F/!f! G2 | F2!>(! E>D!>)! | F.D .D z | z3/2!mf! F/!<(! F2-!<)! | %23
w: "Dig vill jag gi- va min|ä- ra och tro."|Su- ril, å|su- ril, lei!||
w: ||||Tra- la|
 F4-!f! | F2-!>(! F>F!>)! | F.F .F z | z3/2 F/!<(! F2-!<)! | F4- | F2-!>(! F>F!>)! | F.F .F z || %30
w: |||||||
w: |* * å|su- ril, lei!|Tra- la||* * å|sur- il, lei!|
!p! G!<(!G!<)!!>(! GG!>)! | AG/F/ GE |!mf!!<(! !>!B2!<)! !>!B2 |!>(! B.B!>)! .B z | %34
w: Jung- frun gick åt|lun- den, den skö- na,|Su- ril,|su- ril, lei!|
w: ||||
!p! G!<(!G/G/!<)! G!>(!G/G/!>)! | AG/F/ GE!mf! |!<(! !>!B2!<)! !>!c2 |!>(! B.F!>)! .F z | %38
w: Sat- te hon sig u- ti|grä- set det grö- na,|Su- ril,|su- ril, lei!|
w: ||||
!f! !>!A!>!A !>!cA/A/ | G!<(!G/E/!<)! A z/ A/ | FF/F/ AF/F/ | E!<(!E/C/!<)! F2 |!p! D2 D2 | %43
w: Hå, hå, hå vad den|värl- den är falsk, Gud|nå- de den flic- ka som|tror på en skalk.|Su- ril,|
w: |||||
 E2- E z |] %44
w: lei! *|
w: |
V:3
!p! B!<(!B!<)!!>(! eB!>)! | cB/A/ BG!mf! |!<(! !>!e2 !>!e2!<)! | e!>(!.e!>)! .e z | %4
w: Jung- frun gick åt|lun- den, den skö- na,|Su- ril,|su- ril, lei!|
w: ||||
!p! B!<(!B/B/!<)!!>(! eB/!>)!B/ | cB/A/ BG |!mf! !>!e2!<(! !>!e2!<)! | f!>(!.d .d!>)! z | %8
w: Sat- te hon sig u- ti|grä- set det grö- na,|Su- ril,|su- rel, lei!|
w: ||||
 cc ec/c/ | B!<(!B/G/!<)! c2 | AA cA/A/ | G!<(!G/E/!<)! A2 |!p! A2 A2 | G2 z2 || z3/2!mf! F/ F2- | %15
w: Sat- te snö- vi- tan|hand un- der kind.|Säg se'n kä- res- tan|un- der grön lind.|Su- ril,|lei!||
w: ||||||Tra- la|
!<(! F4-!<)!!f! | F2-!>(! F>F!>)! | F.F .F z | z3/2!<(! F/ F2-!<)! | F4-!f! | F2-!>(! F>F!>)! | %21
w: ||||||
w: |* * å|su- ril, lei!|Tra- la||* * å|
 F.F .F z |!mf!"^marcato" FD/F/ B!<(!B/B/!<)! | [Bc][Bc]/[Bd]/!f! [Be]2 | %24
w: |"Din tro och ä- ra jag|li- tet be- gär",|
w: sur- il, lei!|||
 [Bd]2!>(! [FB]>!>)![F=A] | [Fc].[EF] .[EF] z | FD/F/!<(! BB/!<)!B/ | [Bc][Bc]/[Bd]/ [Be]2 | %28
w: Su- ril, å|su- ril, lei!|"Gos- sar de fin- na nog|flic- kor må tro".|
w: ||||
 [Bd]2!>(! [=Ac]>!>)!B | [Bd].[FB] .[FB] z ||!p!!<(! BB!<)!!>(! eB!>)! | cB/A/ BG | %32
w: Su- ril, å|su- ril, lei!|Jung- frun gick åt|lun- den, den skö- na,|
w: ||||
!mf! !>!e2!<(! !>!e2!<)! |!>(! e.e!>)! .e z |!p! B!<(!B/B/!<)! e!>(!B/B/!>)! | cB/A/ BG!mf! | %36
w: Su- ril,|su- ril, lei!|Sat- te hon sig u- ti|grä- set det grö- na,|
w: ||||
!<(! !>!e2!<)! !>!e2 |!>(! f.d!>)! .d z |!f! !>!c!>!c !>!ec/c/ | B!<(!B/G/!<)! c z/ c/ | %40
w: Su- ril,|su- ril, lei!|Hå, hå, hå vad den|värl- den är falsk, Gud|
w: ||||
 AA/A/ cA/A/ | G!<(!G/E/!<)! A2 |!p! A2 A2 | G2- G z |] %44
w: nå- de den flic- ka som|tror på en skalk.|Su- ril,|lei! *|
w: ||||
V:4
!p! E,!<(!E,!<)!!>(! E,E,!>)! | E,E,/E,/ E,E,!mf! |!<(! !>!G,2 !>!B,2!<)! | E!>(!.G, .G,!>)! z | %4
w: Jung- frun gick åt|lun- den, den skö- na,|Su- ril,|su- ril, lei!|
w: ||||
!p! E,!<(!E,/E,/!<)!!>(! E,E,/!>)!E,/ | E,E,/E,/ E,E, |!mf!!<(! !>!G,2 !>!A,2!<)! | %7
w: Sat- te hon sig u- ti|grä- set det grö- na,|Su- ril,|
w: |||
 B,!>(!.B, .B,!>)! z | A,A, CA,/A,/ | G,!<(!G,/E,/!<)! A,2 | F,F, A,F,/F,/ | E,!<(!E,/C,/!<)! F,2 | %12
w: su- rel, lei!|Sat- te snö- vi- tan|hand un- der kind.|Säg se'n kä- res- tan|un- der grön lind.|
w: |||||
!p! B,,2 B,,2 | E,2 z2 || z3/2!mf! F,/ F,2- |!<(! F,4-!<)!!f! | F,2-!>(! F,>!>)!F, | F,.F, .F, z | %18
w: Su- ril,|lei!|||||
w: ||Tra- la||* * å|su- ril, lei!|
 z3/2!<(! F,/ F,2-!<)! | F,4-!f! | F,2-!>(! F,>!>)!F, | B,,.B,, .B,, z | %22
w: ||||
w: Tra- la||* * å|sur- il, lei!|
!mf!"^marcato" D,B,,/D,/ D,!<(!D,/!<)!D,/ | E,E,/F,/!f! G,2 | F,2!>(! D,>C,!>)! | E,.=A,, .A,, z | %26
w: "Din tro och ä- ra jag|li- tet be- gär",|Su- ril, å|su- ril, lei!|
w: ||||
 D,B,,/D,/!<(! D,D,/!<)!D,/ | E,E,/F,/ G,2 | F,2!>(! [E,F,]>[D,F,]!>)! | F,.[B,,D,] .[B,,D,] z || %30
w: "Gos- sar de fin- na nog|flic- kor må tro".|Su- ril, å|su- ril, lei!|
w: ||||
!p! E,!<(!E,!<)!!>(! E,E,!>)! | E,E,/E,/ E,E, |!mf! !>!G,2!<(! !>!B,2!<)! | E!>(!.G, .G,!>)! z | %34
w: Jung- frun gick åt|lun- den, den skö- na,|Su- ril,|su- ril, lei!|
w: ||||
!p! E,!<(!E,/!<)!E,/ E,!>(!E,/!>)!E,/ | E,E,/E,/ E,E,!mf! |!<(! !>!G,2!<)! !>!A,2 | %37
w: Sat- te hon sig u- ti|grä- set det grö- na,|Su- ril,|
w: |||
!>(! B,.B,!>)! .B, z |!f! !>!A,!>!A, !>!CA,/A,/ | G,!<(!G,/E,/!<)! A, z/ A,/ | F,F,/F,/ A,F,/F,/ | %41
w: su- ril, lei!|Hå, hå, hå vad den|värl- den är falsk, Gud|nå- de den flic- ka som|
w: ||||
 E,!<(!E,/C,/!<)! F,2 |!p! B,,2 B,,2 | E,2- E, z |] %44
w: tror på en skalk.|Su- ril,|lei! *|
w: |||

